X: 288
T:The Illumination 9th Feb 1781
B:William Marshall A Collection Of Strathspey Reels (1781)
C:William Marshall
L:1/8
M:C|
O:Scotland
R:Reel?
Z:Clark Bernst + Richard Robinson
%%Page:8 - 1
F:http://richardrobinson.tunebook.org.uk/tune/4131
%%TBL:{"version":1,"type":"tune","id":"4131"}
K:G
%%staves {1 2}
V:1
!trill!g2 (bg) afgd | g2 (bg) af g2 | !trill!g2 bg afgd | =fdcf AFcA ::
(B/c/d) (BG) ecdc | (B/c/d) (BG) gB d2 | (B/c/d) BG ecdB | cA=FA fA c2 :|
V:2 middle=d clef=bass
L:1/4
gGdB | GgdB | gGdc | =fcAF :: GGgg | ggGG | gggg | =fcAF :|

